bundles/org.openhab.ui.iconset.classic/src/main/resources/icons/garage_detached.svg

<?xml version="1.0" encoding="UTF-8"?>
<svg enable-background="new 0 0 64 64" viewBox="0 0 64 64" xmlns="http://www.w3.org/2000/svg">
 <path d="m12.5 45.5v-20.1l19.5-6.9 19.5 6.9v20.1z" fill="#f0f0f0"/>
 <path d="m32 19.1 19 6.6v19.3h-38v-19.3l19-6.6m0-1.1-20 7v21h40v-21l-20-7z" fill="#c8c8c8"/>
 <path d="m57.7 27.5-25.7-9-25.7 9" fill="none" stroke="#2e7de5" stroke-miterlimit="10" stroke-width="1.5"/>
 <path d="m20.5 27.5h23v18h-23z" fill="#f0f0f0"/>
 <path d="m43 28v17h-22v-17h22m1-1h-24v19h24v-19z" fill="#c8c8c8"/>
</svg>

<svg viewBox="0 0 64 64" xmlns="http://www.w3.org/2000/svg"><path d="M12.5 45.5V25.4L32 18.5l19.5 6.9v20.1z" fill="#f0f0f0"/><path d="m32 19.1 19 6.6V45H13V25.7l19-6.6m0-1.1-20 7v21h40V25l-20-7z" fill="#c8c8c8"/><path d="m57.7 27.5-25.7-9-25.7 9" fill="none" stroke="#2e7de5" stroke-miterlimit="10" stroke-width="1.5"/><path d="M20.5 27.5h23v18h-23z" fill="#f0f0f0"/><path d="M43 28v17H21V28h22m1-1H20v19h24V27z" fill="#c8c8c8"/></svg>
